X: 15047
T: Ger Quigley
R: reel
M: 4/4
K: Dmajor
|:Beed Beed|Beed B2 AG|FAdA FAdA|FAdA BAFA|
Beed Beed|Beed B2 AF|G3 F GBdB|AGFG E3A:|
|:Beed e3d|(3Bcd ef gfef|d3 e dA A2|(3Bcd ef gfed|
Beed e3 d|(3Bcd ef gfef|G3 F GBdB|AGFG E3A:|

